X:WFS 13-12 08
T:Jingle Bells
M:2/4
K:G
[P:A] BBB2 | BBB2 | BdG>A | B4 | ccc>c | cBBB |1 BAAB | A2d2 :|2 ddcA | G4 
[P:B] DBAG | D3D | DBAG | E4 |1 EcBA | F4 | ddcA | B4 :|2 EcBA | dddd | edcA | G2d2 |]

